dist/svgs/unicons/line/bring-bottom.svg

<svg xmlns="http://www.w3.org/2000/svg" viewBox="0 0 24 24"><path d="M21 14h-2a1 1 0 100 2h1v4H4v-4h7a1 1 0 000-2h-1V9a1 1 0 00-1-1H3a1 1 0 00-1 1v12a1 1 0 001 1h18a1 1 0 001-1v-6a1 1 0 00-1-1zM4 10h4v4H4zm8.71-3.3L14 5.41V17a1 1 0 102 0V5.41l1.29 1.29A1 1 0 0018 7a1 1 0 00.71-.29 1 1 0 000-1.41l-3-3a1 1 0 00-1.42 0l-3 3a1 1 0 000 1.41 1 1 0 001.42-.01z"/></svg>

<svg xmlns="http://www.w3.org/2000/svg" viewBox="0 0 24 24"><path d="M21,14H19a1,1,0,1,0,0,2h1v4H4V16h7a1,1,0,0,0,0-2H10V9A1,1,0,0,0,9,8H3A1,1,0,0,0,2,9v6H2v6a1,1,0,0,0,1,1H21a1,1,0,0,0,1-1V15A1,1,0,0,0,21,14ZM4,10H8v4H4ZM12.71,6.7,14,5.41V17a1,1,0,1,0,2,0V5.41L17.29,6.7A1,1,0,0,0,18,7a1,1,0,0,0,.71-.29,1,1,0,0,0,0-1.41l-3-3a1,1,0,0,0-1.42,0l-3,3a1,1,0,0,0,0,1.41A1,1,0,0,0,12.71,6.7Z"/></svg>
